X: 4
T: The Gander In The Pratie Hole
R: jig
M: 6/8
L: 1/8
K: Dmaj
A|:(3.F.G.A D (3.F.G.A D|~G3 EFG|(3.F.G.A D (3.F.G.A D|GED {G} (3DDD A|
FAD FAD|GFG EFG|(3.g.f.e d ecA|GED {G} D2 A:|
Add {e} ded|^cAB cAG|Add {e} ded|^cAB c3|
Add {e} ded|^cAB cde|(3.g.f.e d ecA|GED {G} D2 A:|


Tune 401	Setting 27195

